icons/document-check-outline.svg

<svg xmlns="http://www.w3.org/2000/svg" width="24" height="24" viewBox="0 0 24 24">
  <path d="M12,1 L12,8 C12,8.55228475 12.4477153,9 13,9 L20,9 L20,21 C20,22.1045695 19.1045695,23 18,23 L6,23 C4.8954305,23 4,22.1045695 4,21 L4,3 C4,1.8954305 4.8954305,1 6,1 L12,1 Z M10,3 L6,3 L6,21 L18,21 L18,11 L13,11 C11.4023191,11 10.0963391,9.75108004 10.0050927,8.17627279 L10,8 L10,3 Z M15.1616337,13.2501621 C15.543902,13.5874577 15.6069605,14.1518544 15.327,14.5624086 L15.2498499,14.6616216 L11.7204382,18.6616216 C11.3507811,19.0805663 10.7177952,19.1104909 10.3105198,18.7513955 L10.2207624,18.6616216 L8.75017421,16.994955 C8.38477067,16.580831 8.42426642,15.948899 8.83839043,15.5834955 C9.22065875,15.2461999 9.78851489,15.2539073 10.1610152,15.5828086 L10.2498499,15.6717117 L10.9700121,16.488 L13.7501742,13.3383784 C14.1155778,12.9242544 14.7475097,12.8847586 15.1616337,13.2501621 Z M14,1 L20,7 L15,7 C14.4871642,7 14.0644928,6.61395981 14.0067277,6.11662113 L14,6 L14,1 Z"/>
</svg>

<svg xmlns="http://www.w3.org/2000/svg" viewBox="0 0 24 24">
  <path d="M12 1v7a1 1 0 0 0 1 1h7v12a2 2 0 0 1-2 2H6a2 2 0 0 1-2-2V3c0-1.1.9-2 2-2h6zm-2 2H6v18h12V11h-5a3 3 0 0 1-3-2.82V3zm5.16 10.25a1 1 0 0 1 .17 1.31l-.08.1-3.53 4a1 1 0 0 1-1.4.1l-.1-.1L8.75 17a1 1 0 0 1 1.41-1.4l.09.08.72.82 2.78-3.15a1 1 0 0 1 1.41-.09zM14 1l6 6h-5a1 1 0 0 1-1-.88V1z"/>
</svg>
